icon/lg/appcode.svg

<?xml version="1.0" encoding="UTF-8"?>
<svg viewBox="0 0 256 256" version="1.1" xmlns="http://www.w3.org/2000/svg" preserveAspectRatio="xMidYMid" height="1em" width="1em">
  <defs>
    <linearGradient x1="0%" y1="50%" x2="100%" y2="50%" id="appCodeLinearGradient-1">
      <stop stop-color="#07C3F2" offset="19%"/>
      <stop stop-color="#087CFA" offset="90%"/>
    </linearGradient>
    <linearGradient x1="0%" y1="50%" x2="100%" y2="50%" id="appCodeLinearGradient-2">
      <stop stop-color="#07C3F2" offset="19%"/>
      <stop stop-color="#087CFA" offset="90%"/>
    </linearGradient>
    <linearGradient x1="65.6417448%" y1="103.177083%" x2="16.2445747%" y2="34.03125%" id="appCodeLinearGradient-3">
      <stop stop-color="#21D789" offset="9%"/>
      <stop stop-color="#07C3F2" offset="48%"/>
      <stop stop-color="#087CFA" offset="90%"/>
    </linearGradient>
  </defs>
  <g>
    <polygon fill="#087CFA" points="195.626667 256 256 96.3733333 208 85.4933333"/>
    <polygon fill="url(#appCodeLinearGradient-1)" points="255.253333 205.333333 195.626667 256 110.533333 234.08"/>
    <polygon fill="url(#appCodeLinearGradient-2)" points="31.8666667 117.28 4.66666667 39.4666667 140.48 -7.10542736e-15"/>
    <polygon fill="url(#appCodeLinearGradient-3)" points="223.36 148.213333 185.253333 83.1733333 185.973333 82.72 140.48 0 0 151.706667 0 256 255.253333 205.333333"/>
    <polygon fill="#000000" points="48 48 208 48 208 208 48 208"/>
    <path d="M67.9466667,177.76 L127.946667,177.76 L127.946667,187.76 L67.9466667,187.76 L67.9466667,177.76 Z M180.186667,76.1866667 L171.706667,85.9733333 C167.64738,81.755347 162.091896,79.3032714 156.24,79.1466667 C146.166519,79.1466667 138.857238,87.4131918 138.696053,97.6282756 L138.693333,98.16 C138.693333,108.533333 145.866667,117.173333 156.24,117.173333 C162.675758,117.173333 166.796088,114.857906 171.254787,110.960622 L171.910003,110.37908 C172.019711,110.280303 172.129697,110.180606 172.24,110.08 L180.613333,118.666667 C174.409028,125.822451 165.275055,129.751042 155.813333,129.333333 C147.544042,129.471612 139.572381,126.249447 133.721779,120.403871 C127.988189,114.675207 124.772371,106.907314 124.769489,98.8157892 L124.773333,98.16 C124.624952,89.7728376 127.909818,81.6891897 133.866488,75.7828718 C139.823158,69.8765539 147.934399,66.6604272 156.32,66.88 C165.239329,66.4329854 173.924416,69.8196838 180.186667,76.1866667 Z M101.333333,68 L126.88,128.08 L113.173333,128.08 L107.84,114.746667 L82.5066667,114.746667 L77.1733333,128.08 L63.84,128.08 L89.3333333,68 L101.333333,68 Z M95.1466667,83.76 L87.1466667,103.12 L103.146667,103.12 L95.1466667,83.76 Z" fill="#FFFFFF"/>
  </g>
</svg>

<svg width="256" height="256" xmlns="http://www.w3.org/2000/svg" preserveAspectRatio="xMidYMid"><defs><linearGradient x1="0%" y1="50%" x2="100%" y2="50%" id="a"><stop stop-color="#07C3F2" offset="19%"/><stop stop-color="#087CFA" offset="90%"/></linearGradient><linearGradient x1="0%" y1="50%" x2="100%" y2="50%" id="b"><stop stop-color="#07C3F2" offset="19%"/><stop stop-color="#087CFA" offset="90%"/></linearGradient><linearGradient x1="65.642%" y1="103.177%" x2="16.245%" y2="34.031%" id="c"><stop stop-color="#21D789" offset="9%"/><stop stop-color="#07C3F2" offset="48%"/><stop stop-color="#087CFA" offset="90%"/></linearGradient></defs><path fill="#087CFA" d="M195.627 256 256 96.373l-48-10.88z"/><path fill="url(#a)" d="M255.253 205.333 195.627 256l-85.094-21.92z"/><path fill="url(#b)" d="m31.867 117.28-27.2-77.813L140.48 0z"/><path fill="url(#c)" d="m223.36 148.213-38.107-65.04.72-.453L140.48 0 0 151.707V256l255.253-50.667z"/><path d="M48 48h160v160H48z"/><path d="M67.947 177.76h60v10h-60v-10Zm112.24-101.573-8.48 9.786a22.293 22.293 0 0 0-15.467-6.826c-10.073 0-17.383 8.266-17.544 18.481l-.003.532c0 10.373 7.174 19.013 17.547 19.013 6.436 0 10.556-2.315 15.015-6.212l.655-.582.33-.299 8.373 8.587a31.013 31.013 0 0 1-24.8 10.666 30.533 30.533 0 0 1-31.044-30.517l.004-.656a30.747 30.747 0 0 1 31.547-31.28 31.28 31.28 0 0 1 23.867 9.307ZM101.333 68l25.547 60.08h-13.707l-5.333-13.333H82.507l-5.334 13.333H63.84L89.333 68h12Zm-6.186 15.76-8 19.36h16l-8-19.36Z" fill="#FFF"/></svg>
